src/pos-icons/skull-crossbones.svg

<svg height="24" viewBox="0 0 24 24" width="24" xmlns="http://www.w3.org/2000/svg"><path d="m15.8 18.5 6 1.6-.4 1.9-9.4-2.5-9.4 2.5-.5-1.9 6-1.6-6.1-1.6.5-1.9 9.4 2.5 9.4-2.5.5 1.9zm2.2-10.5c0 1.8-.8 3.3-2 4.4v2.6h-2v-1.3-.7h-1v2h-2v-2h-1v.7 1.3h-2v-2.6c-1.2-1.1-2-2.6-2-4.4a6 6 0 0 1 6-6 6 6 0 0 1 6 6m-7-.5c0-.8-.7-1.5-1.5-1.5s-1.5.7-1.5 1.5.7 1.5 1.5 1.5 1.5-.7 1.5-1.5m2 3.5-1-2-1 2zm3-3.5c0-.8-.7-1.5-1.5-1.5s-1.5.7-1.5 1.5.7 1.5 1.5 1.5 1.5-.7 1.5-1.5z"/></svg>

<?xml version="1.0" encoding="UTF-8"?><!DOCTYPE svg PUBLIC "-//W3C//DTD SVG 1.1//EN" "http://www.w3.org/Graphics/SVG/1.1/DTD/svg11.dtd"><svg xmlns="http://www.w3.org/2000/svg" xmlns:xlink="http://www.w3.org/1999/xlink" version="1.1" id="mdi-skull-crossbones" width="24" height="24" viewBox="0 0 24 24"><path d="M15.8,18.5L21.8,20.1L21.4,22L12,19.5L2.6,22L2.1,20.1L8.1,18.5L2,16.9L2.5,15L11.9,17.5L21.3,15L21.8,16.9L15.8,18.5M18,8C18,9.8 17.2,11.3 16,12.4V15H14V13.7L14,13H13V15H11V13H10V13.7L10,15H8V12.4C6.8,11.3 6,9.8 6,8A6,6 0 0,1 12,2A6,6 0 0,1 18,8M11,7.5C11,6.7 10.3,6 9.5,6C8.7,6 8,6.7 8,7.5C8,8.3 8.7,9 9.5,9C10.3,9 11,8.3 11,7.5M13,11L12,9L11,11H13M16,7.5C16,6.7 15.3,6 14.5,6C13.7,6 13,6.7 13,7.5C13,8.3 13.7,9 14.5,9C15.3,9 16,8.3 16,7.5Z" /></svg>
